packages/webapp/public/images/template-logos/reddit.svg

<svg width="62" height="62" viewBox="0 0 62 62" fill="none" xmlns="http://www.w3.org/2000/svg">
<path d="M31 52.9989C43.15 52.9989 53 43.1494 53 30.9993C53 18.8495 43.15 9 31 9C18.85 9 9 18.8495 9 30.9993C9 43.1494 18.85 52.9989 31 52.9989Z" fill="#FF4500"/>
<path d="M45.6747 30.9995C45.6747 29.2142 44.2314 27.7967 42.472 27.7967C41.6065 27.7967 40.8195 28.1379 40.2417 28.6892C38.0354 27.1141 35.018 26.0903 31.6562 25.959L33.1279 19.0808L37.9046 20.1046C37.9569 21.3124 38.9554 22.2837 40.1894 22.2837C41.4495 22.2837 42.472 21.2599 42.472 19.9998C42.472 18.7396 41.4495 17.7158 40.1894 17.7158C39.2955 17.7158 38.5085 18.2408 38.14 19.0021L32.8117 17.8732C32.6547 17.8471 32.4978 17.8732 32.391 17.9519C32.2602 18.0309 32.1817 18.1621 32.1555 18.3195L30.527 25.9852C27.115 26.0902 24.0432 27.1141 21.8128 28.7156C21.2351 28.1642 20.4459 27.8228 19.5803 27.8228C17.7948 27.8228 16.3777 29.2667 16.3777 31.0257C16.3777 32.3384 17.1647 33.4409 18.2679 33.9397C18.2156 34.2547 18.1894 34.5698 18.1894 34.9112C18.1894 39.8466 23.9385 43.8631 31.0262 43.8631C38.1139 43.8631 43.8651 39.8728 43.8651 34.9112C43.8651 34.5961 43.8368 34.2547 43.7845 33.9397C44.8877 33.4409 45.6747 32.312 45.6747 30.9995ZM23.6768 33.2835C23.6768 32.0233 24.6994 30.9995 25.9595 30.9995C27.2197 30.9995 28.2443 32.0233 28.2443 33.2835C28.2443 34.5436 27.2197 35.5674 25.9595 35.5674C24.6994 35.5936 23.6768 34.5436 23.6768 33.2835ZM36.4613 39.3478C34.8851 40.923 31.8939 41.0278 31.0262 41.0278C30.1345 41.0278 27.1412 40.8966 25.5933 39.3478C25.3556 39.1115 25.3556 38.7439 25.5933 38.5076C25.8287 38.2715 26.1971 38.2715 26.4326 38.5076C27.4311 39.5052 29.5306 39.8466 31.0262 39.8466C32.5239 39.8466 34.6496 39.5052 35.6198 38.5076C35.8575 38.2715 36.2237 38.2715 36.4613 38.5076C36.6706 38.7439 36.6706 39.1115 36.4613 39.3478ZM36.0406 35.5936C34.7804 35.5936 33.758 34.5698 33.758 33.3096C33.758 32.0495 34.7804 31.0257 36.0406 31.0257C37.3007 31.0257 38.3254 32.0495 38.3254 33.3096C38.3254 34.5436 37.3007 35.5936 36.0406 35.5936Z" fill="white"/>
</svg>

<svg xmlns="http://www.w3.org/2000/svg" width="62" height="62" fill="none"><path d="M31 52.999c12.15 0 22-9.849 22-22S43.15 9 31 9 9 18.85 9 30.999s9.85 22 22 22z" fill="#ff4500"/><path d="M45.675 31a3.2 3.2 0 0 0-3.203-3.203c-.865 0-1.652.341-2.23.892-2.206-1.575-5.224-2.599-8.585-2.73l1.472-6.878 4.777 1.024c.052 1.208 1.051 2.179 2.285 2.179 1.26 0 2.283-1.024 2.283-2.284s-1.023-2.284-2.283-2.284c-.894 0-1.681.525-2.049 1.286l-5.328-1.129c-.157-.026-.314 0-.421.079-.131.079-.209.21-.236.368l-1.628 7.666c-3.412.105-6.484 1.129-8.714 2.73a3.23 3.23 0 0 0-2.233-.893 3.2 3.2 0 0 0-3.203 3.203c0 1.313.787 2.415 1.89 2.914-.052.315-.079.63-.079.971 0 4.935 5.749 8.952 12.837 8.952s12.839-3.99 12.839-8.952c0-.315-.028-.657-.081-.971 1.103-.499 1.89-1.628 1.89-2.94zm-21.998 2.284c0-1.26 1.023-2.284 2.283-2.284s2.285 1.024 2.285 2.284-1.025 2.284-2.285 2.284c-1.26.026-2.283-1.024-2.283-2.284zm12.785 6.064c-1.576 1.575-4.568 1.68-5.435 1.68-.892 0-3.885-.131-5.433-1.68-.238-.236-.238-.604 0-.84s.604-.236.839 0c.999.998 3.098 1.339 4.594 1.339s3.624-.341 4.594-1.339a.59.59 0 0 1 .842 0 .64.64 0 0 1 0 .84zm-.421-3.754c-1.26 0-2.283-1.024-2.283-2.284s1.023-2.284 2.283-2.284 2.285 1.024 2.285 2.284c0 1.234-1.025 2.284-2.285 2.284z" fill="#fff"/></svg>
